X: 1
T: And'aman Palikanari    [Dm]
T: Sta Dyo
R: sta dyo
Z: 2012 John Chambers <jc:trillian.mit.edu>
M: 2/4
L: 1/8
K: Dm
D2 | "Dm"A2 (AG) | F2 A2 | "G"G4 | (FE) D2 | "C"E2 (EF) | G2 D2 | "Dm"D4- | D2 :|
w: 1.~And-'a-man* pa-li-ka-na-*ri, dho-dhe-*ka hro-non,
w: 2.~Na ma-tho* to dho-ksa-ri,** ke to* po-le-mo,
w: 3.~Mon ma-tha* tin a-ga-pi** tin pa-*te-ri-mi,
|: (ED) | "C"C2 (DE) | "F"F2 A2 | "Gm"(G4 | FE) D2 | "C"E2 (EF) | G2 D2 | "Dm"D4- | D2 :|
w: 1.~ge-*ni-tsa-*ro me pi-**ran pe-ra* stin fran-ghia.
w: 2.~mi-*dhe dho-*ksa-ri ma-**tha, mi-dhe* po-le-mo.
w: 3.~ta* si-dhe-*ra pa-tou-**sa, ke vga-*za ne-ro.
%
W: 1. When I was a young man of twelve, they took me as a Janissary to foreign lands.
W: 2. To learn the bow and war; neither the bow did I learn nor war.
W: 3. I only learned of love for the homeland.  I pressed iron and drew water.

%%sep 1 1 500


